X: 2525
T: Ballydesmond, The
R: polka
M: 2/4
K: Adorian
|:EA AB|c/^c/d e2|G>F GA|GE ED|
EA AB|c/^c/d ef|ge dB|1 A2 AG:|2 A2 A2||
|:a2 ab|ag ef|g>f ga|ge ed|
ea ab|ag ef|ge dB|1 A2 A2:|2 A2 AG||

